img/icons/electronic/server.svg

<svg xmlns="http://www.w3.org/2000/svg" viewBox="0 0 38 48"><defs><style>.cls-1{fill:#231f20}</style></defs><g id="Layer_2" data-name="Layer 2"><g id="Icons"><g id="Device_Electronic" data-name="Device / Electronic"><g id="Server"><path class="cls-1" d="M0 0v41a7 7 0 007 7h24a7 7 0 007-7V0zm36 2v13H2V2zm0 15v13H2V17zm-5 29H7a5 5 0 01-5-5v-9h34v9a5 5 0 01-5 5z"/><circle class="cls-1" cx="30" cy="38" r="2"/><circle class="cls-1" cx="30" cy="23.01" r="2"/><circle class="cls-1" cx="30" cy="8" r="2"/></g></g></g></g></svg>

<svg xmlns="http://www.w3.org/2000/svg" viewBox="0 0 38 48"><defs><style>.cls-1{fill:#231f20;}</style></defs><title>Server</title><g id="Layer_2" data-name="Layer 2"><g id="Icons"><g id="Device_Electronic" data-name="Device / Electronic"><g id="Server"><path class="cls-1" d="M0,0V41a7,7,0,0,0,7,7H31a7,7,0,0,0,7-7V0ZM36,2V15H2V2Zm0,15V30H2V17ZM31,46H7a5,5,0,0,1-5-5V32H36v9A5,5,0,0,1,31,46Z"/><circle class="cls-1" cx="30" cy="38" r="2"/><circle class="cls-1" cx="30" cy="23.01" r="2"/><circle class="cls-1" cx="30" cy="8" r="2"/></g></g></g></g></svg>
